X:1191
T:The Morning Star
M:C|
L:1/8
R:Reel
B:O'Neill's 1191
N:Collected by F. O'Neill
Z:Transcribed by Trish O'Neil
K:G
(GA) \
|B2 TBA BGEF|GABd efed|B2 TBA BGEG|FGAF "end"G2 :|
(GA) \
|Bdef g2eg|Tf2df edBA|Bdef g2fg|agfg e2z2|
|Bdef g2eg|Tf2df edBA|Bddc d2ef|geaf agfed|]
